X:1
T: Cheap Mutton
C:Nathaniel Gow
R:Strathspey
Q: 128
K:Gm
M:4/4
L:1/16
|:D2G2 G3B A3G F2C2|D2G2 G3B A2G2 g4|f2a2 d2f2 c2f2 A2F2|D3G B3G A3^F G4|
D2G2 G3B A3G F2C2|D2G2 G3B A2G2 g4|f2a2 d2f2 c2f2 A2F2|D3G B3G A3^F G4|
G2g2 g3a f2c2 f4|G2g2 g2a2 ^f2d2 g4|f2a2 d2f2 c2f2 A2F2|D3G B3G A3^F G4|
G2g2 g3a f2c2 f4|G2g2 g2a2 ^f2d2 g4|f2a2 d2f2 c2f2 A2F2|D3G B3G A3^F G4:|
